packages/assets/static/images/icons/open-now.svg

<svg width="24" height="24" viewBox="0 0 24 24" xmlns="http://www.w3.org/2000/svg">
<path d="M20.1944 9.43049H17.8942L14.8157 6.06795C15.0053 5.69167 15.1118 5.26824 15.1118 4.8199C15.1118 3.26495 13.8281 2 12.25 2C10.6719 2 9.38819 3.26495 9.38819 4.8199C9.38819 5.2629 9.49292 5.68188 9.67799 6.0555L6.60493 9.43049H4.30556C3.30979 9.43049 2.5 10.2284 2.5 11.2096V21.1709C2.5 22.1521 3.30979 22.95 4.30556 22.95H20.1944C21.1902 22.95 22 22.1521 22 21.1709V11.2096C22 10.2284 21.1902 9.43049 20.1944 9.43049ZM12.25 4.13583C12.6337 4.13583 12.9451 4.44273 12.9451 4.82079C12.9451 5.19885 12.6337 5.50575 12.25 5.50575C11.8663 5.50575 11.5549 5.19885 11.5549 4.82079C11.5549 4.44273 11.8663 4.13583 12.25 4.13583ZM11.294 7.4779C11.5928 7.58287 11.9151 7.6398 12.25 7.6398C12.5849 7.6398 12.8964 7.58376 13.1916 7.48235L14.9755 9.43049H9.51549L11.294 7.4779ZM19.8333 20.8151H4.66667V11.5654H19.8333V20.8151Z"/>
<path d="M10.3181 18.8038C10.5293 19.0119 10.8065 19.116 11.0845 19.116C11.3626 19.116 11.6388 19.0119 11.851 18.8038L15.9956 14.7198C16.419 14.3026 16.419 13.6274 15.9956 13.2102C15.5722 12.793 14.8861 12.793 14.4636 13.2102L11.0854 16.539L10.0382 15.5071C9.61479 15.0899 8.92868 15.0899 8.50618 15.5071C8.08368 15.9243 8.08278 16.5994 8.50618 17.0166L10.319 18.8029L10.3181 18.8038Z"/>
</svg>

<svg viewBox="0 0 24 24" xmlns="http://www.w3.org/2000/svg" aria-hidden="true" fill="currentColor" height="24px" width="24px"><path d="M20.194 9.43h-2.3l-3.078-3.362c.19-.376.296-.8.296-1.248 0-1.555-1.284-2.82-2.862-2.82S9.388 3.265 9.388 4.82c0 .443.105.862.29 1.236L6.605 9.43h-2.3c-.995 0-1.805.798-1.805 1.78v9.96c0 .982.81 1.78 1.806 1.78h15.888c.996 0 1.806-.798 1.806-1.78v-9.96c0-.982-.81-1.78-1.806-1.78M12.25 4.136a.69.69 0 0 1 .695.685.69.69 0 0 1-.695.685.69.69 0 0 1-.695-.685.69.69 0 0 1 .695-.685m-.956 3.342a2.88 2.88 0 0 0 1.898.004l1.784 1.948h-5.46zm8.54 13.337H4.666v-9.25h15.166z"/><path d="M10.318 18.804c.211.208.489.312.767.312s.554-.104.766-.312l4.145-4.084a1.056 1.056 0 0 0 0-1.51 1.094 1.094 0 0 0-1.532 0l-3.379 3.329-1.047-1.032a1.094 1.094 0 0 0-1.532 0 1.057 1.057 0 0 0 0 1.51l1.813 1.786"/></svg>
